Cloud/dashboard/static/tracks/adelaide_gp.svg

<?xml version="1.0" encoding="UTF-8"?>
<!-- Uploaded to: SVG Find, www.svgfind.com, Generator: SVG Find Mixer Tools -->
<svg fill="#000000" width="800px" height="800px" version="1.1" viewBox="144 144 512 512" xmlns="http://www.w3.org/2000/svg">
 <path d="m610.18 413.43-262.68-223.55c-4.6719-3.9766-11.523-4.9375-17.113-2.3711l-2.0625 0.94531c-1.1094 0.50781-2.2852 0.80859-3.5039 0.90625l-125.5 9.6719c-8.0078 0.61719-14.023 7.6367-13.406 15.645l4.6836 60.766c0.72656 9.4453 5.5469 18.047 13.223 23.598l14.254 10.316c1.668 1.2109 2.7188 3.082 2.875 5.1328l5.0312 65.324c0.38672 5.0938 4.6914 9.082 9.7969 9.082l55.34-4.582 4.0039 52.004c0.39844 5.0859 4.6992 9.0703 9.7969 9.0703l99.68-7.6523c7.9531-0.64062 15.918 1.3672 22.656 5.6289l20.383 12.887c3.9453 2.4961 8.5742 3.6562 13.277 3.3008l2.9648-0.21875c1.2305 0 2.3789 0.55859 3.1406 1.5273l64.227 81.625-3.9258 3.0859-26.984-34.336-7.2031-9.168 1.9805 16.242 4.918 0.76953 26.438 33.641 7.9297-6.2305 48.891 62.137c2.6562 3.3789 6.5898 5.3125 10.777 5.3125 4.043 0 7.8945-1.7305 10.57-4.7461 2.6133-2.9453 3.7812-6.7812 3.293-10.801l-5.4219-44.574c-0.94922-7.7852-4.1836-14.883-9.3594-20.52-8.1055-8.8281-17.836-16.742-28.93-23.52-10.668-6.5156-19.332-16-25.059-27.422l-13.184-26.309c-1.5273-3.043-0.75391-6.6836 1.875-8.8516l11.965-9.8789c5.8086-4.7969 13.289-7.25 20.832-6.7891l41.621 2.5195 0.71484 0.023437c4.6953 0 8.7852-2.8672 10.418-7.3047 1.6406-4.4375 0.36719-9.2734-3.2266-12.332zm-6.3125 8.8047c-0.16016 0.42578-0.39063 0.51953-0.96484 0.63672l-41.621-2.5195c-10.18-0.62109-20.145 2.668-27.93 9.0938l-11.965 9.8789c-6.3047 5.2031-8.1523 13.945-4.4922 21.258l13.184 26.309c6.5781 13.129 16.551 24.035 28.848 31.547 10.281 6.2773 19.273 13.586 26.742 21.715 3.7266 4.0625 6.0625 9.2031 6.7461 14.863l5.4219 44.574c0.14062 1.1172-0.13281 2.0703-0.80469 2.8281-1.4375 1.6289-4.2344 1.793-5.7305-0.10938l-116.26-147.75c-2.7031-3.4375-6.7617-5.4102-11.141-5.4102-0.36328 0-0.72656 0.015625-1.0938 0.042969l-2.6523 0.20703c-2.5039 0.1875-4.9648-0.42969-7.0586-1.7539l-20.383-12.891c-8.5859-5.4297-18.668-7.9688-28.879-7.1758l-98.547 7.9414-4.0039-52.004c-0.39844-5.0898-4.6992-9.0742-9.7969-9.0742l-55.34 4.5859-5.0312-65.332c-0.38672-5.0391-2.9609-9.6289-7.0586-12.594l-14.254-10.316c-5.2461-3.7969-8.543-9.6758-9.0391-16.133l-4.6836-60.766c-0.18359-2.418 1.6289-4.5352 4.043-4.7188l125.5-9.6719c2.4102-0.1875 4.75-0.78906 6.957-1.8008l2.0625-0.94531c2.0586-0.9375 4.5664-0.58984 6.2773 0.87109l262.66 223.56c0.15625 0.12891 0.51172 0.43359 0.28516 1.0547z"/>
</svg>

<?xml version="1.0" encoding="utf-8"?>
<svg fill="#000000" width="800px" height="800px" version="1.1" viewBox="144 144 512 512" xmlns="http://www.w3.org/2000/svg" xmlns:bx="https://boxy-svg.com">
  <defs>
    <bx:export>
      <bx:file format="svg"/>
    </bx:export>
  </defs>
  <path d="M 610.18 413.43 L 347.5 189.88 C 342.828 185.903 335.977 184.942 330.387 187.509 L 328.324 188.454 C 327.215 188.962 326.039 189.263 324.821 189.36 L 199.321 199.032 C 191.313 199.65 185.298 206.669 185.915 214.677 L 190.598 275.443 C 191.325 284.889 196.145 293.49 203.821 299.041 L 218.075 309.357 C 219.743 310.568 220.794 312.439 220.95 314.49 L 225.981 379.814 C 226.368 384.908 230.673 388.896 235.778 388.896 L 291.118 384.314 L 295.122 436.318 C 295.521 441.404 299.821 445.388 304.919 445.388 L 404.599 437.736 C 412.552 437.096 420.517 439.103 427.255 443.365 L 447.638 456.252 C 451.583 458.748 456.212 459.908 460.915 459.553 L 463.88 459.334 C 465.11 459.334 466.259 459.893 467.021 460.861 L 534.401 546.49 L 583.292 608.627 C 585.948 612.006 589.882 613.94 594.069 613.94 C 598.112 613.94 601.963 612.209 604.639 609.194 C 607.252 606.248 608.42 602.413 607.932 598.393 L 602.51 553.819 C 601.561 546.034 598.326 538.936 593.151 533.299 C 585.045 524.471 575.315 516.557 564.221 509.779 C 553.553 503.263 544.889 493.779 539.162 482.357 L 525.978 456.048 C 524.45 453.005 525.224 449.364 527.853 447.196 L 539.818 437.317 C 545.626 432.52 553.107 430.067 560.65 430.528 L 602.271 433.048 L 602.985 433.071 C 607.681 433.071 611.771 430.204 613.403 425.766 C 615.044 421.329 613.771 416.493 610.177 413.434 L 610.18 413.43 Z M 603.867 422.235 C 603.707 422.66 603.477 422.754 602.903 422.871 L 561.282 420.352 C 551.102 419.731 541.137 423.02 533.352 429.446 L 521.387 439.325 C 515.082 444.528 513.234 453.27 516.894 460.583 L 530.078 486.892 C 536.657 500.021 546.63 510.927 558.927 518.439 C 569.208 524.716 578.2 532.025 585.669 540.154 C 589.395 544.216 591.731 549.357 592.415 555.017 L 597.836 599.591 C 597.977 600.708 597.704 601.661 597.032 602.419 C 595.594 604.048 592.797 604.212 591.301 602.309 L 475.041 454.559 C 472.338 451.122 468.28 449.149 463.9 449.149 C 463.537 449.149 463.174 449.165 462.806 449.192 L 460.154 449.399 C 457.65 449.587 455.189 448.969 453.096 447.645 L 432.713 434.754 C 424.127 429.325 414.045 426.785 403.834 427.578 L 305.287 435.52 L 301.283 383.516 C 300.884 378.426 296.583 374.442 291.486 374.442 L 236.146 379.028 L 231.115 313.696 C 230.728 308.656 228.154 304.067 224.056 301.102 L 209.802 290.786 C 204.556 286.989 201.259 281.11 200.763 274.653 L 196.079 213.887 C 195.896 211.469 197.708 209.351 200.122 209.168 L 325.622 199.496 C 328.032 199.308 330.372 198.707 332.579 197.695 L 334.642 196.75 C 336.7 195.812 339.208 196.16 340.919 197.621 L 603.579 421.181 C 603.735 421.31 604.091 421.614 603.864 422.236 L 603.867 422.235 Z"/>
</svg>
